!!!CDT:
!!!PTL: Li Diversi Scherzi a una, a due et tre voci. Libro primo
!!!PPP: Rome
!!!PPR: Giovanni Battista Robletti
!!!PDT: 1613
!!!RISM: C 2214
!!!rime:
!!!AGN: Madrigal
!!!SCT: Tsg20128a
!!!SCA: Tsg20128a
!!!voices:
!!!COM: Cifra, Antonio
!!!OTL: Si volse Armida, e 'l rimirò improvviso
**kern	**kern	**text	**kern	**text	**kern	**text
*part4	*part3	*part3	*part2	*part2	*part1	*part1
*staff4	*staff3	*staff3	*staff2	*staff2	*staff1	*staff1
*I"[Basso continuo]	*I"[Canto III]	*	*I"[Canto II]	*	*I"[Canto I]	*
*I'Bc	*I'C III	*	*I'C II	*	*I'C I	*
*oclefF4	*oclefC1	*	*oclefC1	*	*oclefC1	*
*clefF4	*clefG2	*	*clefG2	*	*clefG2	*
*k[b-]	*k[b-]	*	*k[b-]	*	*k[b-]	*
*F:	*F:	*	*F:	*	*F:	*
*omet(C)	*omet(C)	*	*omet(C)	*	*omet(C)	*
*M4/4	*M4/4	*	*M4/4	*	*M4/4	*
=1	=1	=1	=1	=1	=1	=1
!	!	!	!	!	!LO:TX:a:t=Aria di Romanesca quarta a tre Soprani. [Prima Stanza.]	!
1BB-y	2r	.	2r	.	2r	.
.	2f	Si	2b-y	Si	2dd	Si
=2	=2	=2	=2	=2	=2	=2
2BB-y	2b-y	vol-	2dd	vol-	2ff	vol-
2BB-y	2f	-se Ar-	2b-y	-se Ar-	2dd	-se Ar-
=3	=3	=3	=3	=3	=3	=3
2F	2f	-mi-	2a	-mi-	2cc	-mi-
4F	4f	-d'e'l	4a	-d'e'l	4cc	-d'e'l
[4F	[4f	ri-	[4a	ri-	[4cc	ri-
=4	=4	=4	=4	=4	=4	=4
4F]	4f]	.	4a]	.	4cc]	.
4F	4f	-mi-	4a	-mi-	4dd	-mi-
2G	2g	-rò im-	2b-y	-rò im-	2ee-X	-rò im-
=5	=5	=5	=5	=5	=5	=5
2D	2d	-pro-	2a	-pro-	2dd	-pro-
2E-X	2e-X	-vi-	2g	-vi-	2cc	-vi-
=6	=6	=6	=6	=6	=6	=6
2.D	1d	-so;	1a	-so;	2dd	-so;
.	.	.	.	.	4r	.
4D	.	.	.	.	[4ff	Ché
=7	=7	=7	=7	=7	=7	=7
4D	1r	.	2r	.	4ff]	.
4C	.	.	.	.	8ee-X	no'l
.	.	.	.	.	8cc	sen-
[2BB-y	.	.	4r	.	2dd	-tì
.	.	.	[4dd	Ché	.	.
=8	=8	=8	=8	=8	=8	=8
4BB-]	4r	.	4dd]	.	1r	.
4AA	2ff	Ché	8cc	no'l	.	.
.	.	.	8a	sen-	.	.
2GG	.	.	2b-y	-tì	.	.
.	8ee-X	no'l	.	.	.	.
.	8b-y	sen-	.	.	.	.
=9	=9	=9	=9	=9	=9	=9
1FF	2cc	-tì	2r	.	4a	quan-
.	.	.	.	.	8a	-do
.	.	.	.	.	8b-y	da
.	2r	.	4f	quan-	2cc	pri-
.	.	.	8f	-do	.	.
.	.	.	8g	da	.	.
=10	=10	=10	=10	=10	=10	=10
2F	4cc	quan-	2a	pri-	2f	-ma ei
.	8cc	-do	.	.	.	.
.	8dd	da	.	.	.	.
2G	[2ee-X	pri-	2g	-ma	4.b-y	ven-
.	.	.	.	.	8g	.
=11	=11	=11	=11	=11	=11	=11
2C	4ee-]	.	2c	ei	8aL	.
.	.	.	.	.	8gJ	.
.	4a	-ma ei	.	.	2g	.
2D	2a	ven-	2d	ven-	.	.
.	.	.	.	.	4f#X	.
=12	=12	=12	=12	=12	=12	=12
4GG	2g	-ne,	2g	-ne,	2g	-ne,
2G	.	.	.	.	.	.
.	2r	.	2r	.	2r	.
4F#X	.	.	.	.	.	.
=13	=13	=13	=13	=13	=13	=13
4G	1r	.	4r	.	4b-y	Ché
4A	.	.	2ff	Ché	8a	no'l
.	.	.	.	.	8g	sen-
[2B-y	.	.	.	.	2f	-tì
.	.	.	8dd	no'l	.	.
.	.	.	8cc	sen-	.	.
=14	=14	=14	=14	=14	=14	=14
4B-]	4f	Ché	2b-y	-tì	2r	.
4A	8g	no'l	.	.	.	.
.	8a	sen-	.	.	.	.
2G	4b-y	-tì	2r	.	[2dd	quan-
.	[4b-y	quan-	.	.	.	.
=15	=15	=15	=15	=15	=15	=15
1F	4b-]	.	2r	.	4dd]	.
.	8a	-do	.	.	8cc	-do
.	8g	da	.	.	8b-y	da
.	4.a	pri-	4r	.	4.cc	pri-
.	.	.	[4a	quan-	.	.
.	8b-y	.	.	.	16ddL	.
.	.	.	.	.	16eeJ	.
=16	=16	=16	=16	=16	=16	=16
2F	2cc	.	4a]	.	2ff	.
.	.	.	8g	-do	.	.
.	.	.	8f	da	.	.
2G	2b-y	-ma ei	2g	pri-	2dd	-ma e
=17	=17	=17	=17	=17	=17	=17
2C	8aL	ven-	2c	-ma ei	4.cc	ven-
.	8gJ	.	.	.	.	.
.	2g	.	.	.	.	.
.	.	.	.	.	8b-y	.
2D	.	.	2d	ven-	2a	.
.	4f#X	.	.	.	.	.
=18	=18	=18	=18	=18	=18	=18
1GG	1g	-ne.	1g	-ne.	1g	-ne.
=19||	=19||	=19||	=19||	=19||	=19||	=19||
!	!	!	!	!	!LO:TX:a:t=Seconda Stanza.	!
1BB-y	2r	.	8r	.	8rJ	.
.	.	.	8d	Al-	8f	Al-
.	.	.	8d	-zò	8f	-zò
.	.	.	8d	le	8f	le
.	8r	.	2dd	stri-	2ff	stri-
.	8B-y	Al-	.	.	.	.
.	8B-y	-zò	.	.	.	.
.	8B-y	le	.	.	.	.
=20	=20	=20	=20	=20	=20	=20
2BB-y	2b-y	stri-	1dd	-da,	1ff	-da,
2BB-y	2b-y	-da,	.	.	.	.
=21	=21	=21	=21	=21	=21	=21
2F	8r	.	1r	.	1r	.
.	8cc	e	.	.	.	.
.	8cc	da	.	.	.	.
.	8cc	l'a-	.	.	.	.
4F	2dd	-ma-	.	.	.	.
[4F	.	.	.	.	.	.
=22	=22	=22	=22	=22	=22	=22
4F]	2dd	-to,	8r	.	4r	.
.	.	.	8a	e	.	.
4F	.	.	8a	da	8r	.
.	.	.	8a	l'a-	8dd	e
2G	8r	.	[2b-y	-ma-	8dd	da
.	8g	e	.	.	8dd	l'a-
.	8g	da	.	.	[4ee-X	-ma-
.	8g	l'a-	.	.	.	.
=23	=23	=23	=23	=23	=23	=23
2D	4.f	-ma-	4b-]	.	4ee-]	.
.	.	.	4a	-to	2dd	-to
.	8d	-to	.	.	.	.
2E-X	2e-X	vi-	2g	vi-	.	.
.	.	.	.	.	4cc	vi-
=24	=24	=24	=24	=24	=24	=24
2.D	2d	-so	2f#X	-so	2dd	-so
.	4r	.	2r	.	2r	.
4D	[4f	Tor-	.	.	.	.
=25	=25	=25	=25	=25	=25	=25
4D	4f]	.	2r	.	1r	.
4C	8e-X	-se	.	.	.	.
.	8e-i	le	.	.	.	.
[2BB-y	2d	lu-	4r	.	.	.
.	.	.	[4dd	Tor-	.	.
=26	=26	=26	=26	=26	=26	=26
4BB-]	2d	-ci	4dd]	.	4r	.
4AA	.	.	8cc	-se	2ee-X	Tor-
.	.	.	8cc	le	.	.
2GG	4r	.	2b-y	lu-	.	.
.	8f	di-	.	.	8dd	-se
.	8d	-sde-	.	.	8dd	le
=27	=27	=27	=27	=27	=27	=27
1FF	[1f	-gno-	4a	-ci	4cc	lu-
.	.	.	8a	di-	4cc	-ci
.	.	.	8f	-sde-	.	.
.	.	.	[2cc	-gno-	4r	.
.	.	.	.	.	8a	di-
.	.	.	.	.	8f	-sde-
=28	=28	=28	=28	=28	=28	=28
2F	2f]	.	4cc]	.	2cc	-gno-
.	.	.	2a	-sa, e	.	.
2G	2d	-sa, e	.	.	2b-y	-sa, e
.	.	.	8gL	.	.	.
.	.	.	8fJ	.	.	.
=29	=29	=29	=29	=29	=29	=29
2C	2c	sven-	4e	.	1a	sven-
.	.	.	2g	sven-	.	.
2D	2d	-ne,	.	.	.	.
.	.	.	4f#X	-ne,	.	.
=30	=30	=30	=30	=30	=30	=30
4GG	1r	.	1r	.	2g	-ne,
2G	.	.	.	.	.	.
.	.	.	.	.	2r	.
4F#X	.	.	.	.	.	.
=31	=31	=31	=31	=31	=31	=31
4G	1r	.	1r	.	2r	.
4A	.	.	.	.	.	.
[2B-y	.	.	.	.	4dd	Tor-
.	.	.	.	.	8dd	-se
.	.	.	.	.	8dd	le
=32	=32	=32	=32	=32	=32	=32
4B-]	4a	Tor-	4cc	Tor-	4ff	lu-
4A	8a	-se	8cc	-se	4f	-ci
.	8a	le	8cc	le	.	.
2G	2b-y	lu-	2ee-X	lu-	2r	.
=33	=33	=33	=33	=33	=33	=33
1F	2a	-ci	2cc	-ci	4r	.
.	.	.	.	.	8a	di-
.	.	.	.	.	8f	-sde-
.	8a	di-	4r	.	4cc	-gno-
.	8f	-sde-	.	.	.	.
.	4cc	-gno-	8a	di-	4f	-sa,
.	.	.	8f	-sde-	.	.
=34	=34	=34	=34	=34	=34	=34
2F	4a	-sa,	2cc	-gno-	4r	.
.	8a	di-	.	.	8ff	di-
.	8f	-sde-	.	.	8cc	-sde-
2G	2g	-gno-	2b-y	-sa, e	[2ee-X	-gno-
=35	=35	=35	=35	=35	=35	=35
2C	2c	-sa, e	8aL	sven-	4ee-]	.
.	.	.	8gJ	.	.	.
.	.	.	2g	.	8aL	-sa, e
.	.	.	.	.	16b-y	.
.	.	.	.	.	16ccJ	.
2D	2d	sven-	.	.	2a	sven-
.	.	.	4f#X	.	.	.
=36	=36	=36	=36	=36	=36	=36
1GG	1g	-ne.	1g	-ne.	1g	-ne.
=37||	=37||	=37||	=37||	=37||	=37||	=37||
!	!	!	!	!	!LO:TX:a:t=Terza Stanza.	!
1BB-y	4r	.	1r	.	1r	.
.	2b-y	El-	.	.	.	.
.	8a	-la	.	.	.	.
.	8g	ca-	.	.	.	.
=38	=38	=38	=38	=38	=38	=38
2BB-y	2f	-dea,	4r	.	4r	.
.	.	.	2dd	El-	2ff	El-
2BB-y	2r	.	.	.	.	.
.	.	.	8cc	-la	8ee	-la
.	.	.	8b-y	ca-	8dd	ca-
=39	=39	=39	=39	=39	=39	=39
2F	2r	.	2a	-dea,	2cc	-dea,
4F	4r	.	4r	.	4r	.
[4F	8f	qua-	8a	qua-	8cc	qua-
.	8f	-si	8a	-si	8cc	-si
=40	=40	=40	=40	=40	=40	=40
4F]	2f	fior	2a	fior	2cc	fior
4F	.	.	.	.	.	.
2G	2g	mez-	4r	.	[2b-y	mez-
.	.	.	[4g	mez-	.	.
=41	=41	=41	=41	=41	=41	=41
2D	2d	-z'in-	4g]	.	4b-]	.
.	.	.	4f#X	-z'in-	4a	-z'in-
2E-X	2e-X	-ci-	2g	-ci-	2cc	-ci-
=42	=42	=42	=42	=42	=42	=42
2.D	1d	-so,	2f#X	-so,	1a	-so,
.	.	.	2r	.	.	.
4D	.	.	.	.	.	.
=43	=43	=43	=43	=43	=43	=43
4D	2r	.	2r	.	2r	.
4C	.	.	.	.	.	.
[2BB-y	4r	.	4r	.	4r	.
.	4b-y	Pie-	4ffnXi	Pie-	4dd	Pie-
=44	=44	=44	=44	=44	=44	=44
4BB-]	4.f	-gan-	4b-y	-gan-	4dd	-gan-
4AA	.	.	4cc	-d'il	4cc	-d'il
.	8e	-d'il	.	.	.	.
2GG	4.g	len-	4.dd	len-	4.b-y	len-
.	8g	-to	8ee-X	-to	8g	-to
=45	=45	=45	=45	=45	=45	=45
1FF	2f	col-	2.cc	col-	2a	col-
.	2f	-lo:	.	.	2a	-lo:
.	.	.	4dd	-lo: ei	.	.
=46	=46	=46	=46	=46	=46	=46
2F	2r	.	4cc	la	4r	.
.	.	.	4a	so-	4ff	ei
2G	4r	.	8b-yL	-sten-	2dd	la
.	.	.	8aJ	.	.	.
.	4b-y	ei	8gL	.	.	.
.	.	.	8fJ	.	.	.
=47	=47	=47	=47	=47	=47	=47
2C	8a	la	8e-XL	.	2cc	so-
.	8g	so-	8dJ	.	.	.
.	2g	-sten-	8e-iL	.	.	.
.	.	.	8cJ	.	.	.
2D	.	.	2d	.	2a	-sten-
.	4f#X	.	.	.	.	.
=48	=48	=48	=48	=48	=48	=48
4GG	2g	-ne,	2g	-ne,	2g	-ne,
2G	.	.	.	.	.	.
.	2r	.	2r	.	2r	.
4F#X	.	.	.	.	.	.
=49	=49	=49	=49	=49	=49	=49
4G	2r	.	2r	.	4r	.
4A	.	.	.	.	4ff	Pie-
[2B-y	4r	.	4ff	Pie-	8ffL	-gan-
.	.	.	.	.	8eeJ	.
.	4b-y	Pie-	8ffL	-gan-	8ddL	.
.	.	.	8eeJ	.	8ccJ	.
=50	=50	=50	=50	=50	=50	=50
4B-]	4.f	-gan-	4dd	.	4b-y	.
4A	.	.	4cc	-d'il	4cc	-d'il
.	8e	-d'il	.	.	.	.
2G	4g	len-	4.b-y	len-	4dd	len-
.	4g	-to	.	.	4ee	-to
.	.	.	8g	-to	.	.
=51	=51	=51	=51	=51	=51	=51
1F	2f	col-	2.a	col-	2cc	col-
.	2f	-lo:	.	.	2cc	-lo:
.	.	.	4cc	-lo: ei	.	.
=52	=52	=52	=52	=52	=52	=52
2F	2r	.	4f	la	4r	.
.	.	.	4a	so-	4ff	ei
2G	4r	.	8gL	-sten-	4b-y	la
.	.	.	8aJ	.	.	.
.	4g	ei	8b-yL	.	4dd	so-
.	.	.	8gJ	.	.	.
=53	=53	=53	=53	=53	=53	=53
2C	4c	la	8aL	.	4.cc	-sten-
.	.	.	8gJ	.	.	.
.	4e-X	so-	2g	.	.	.
.	.	.	.	.	8g	.
2D	2d	-sten-	.	.	2a	.
.	.	.	4f#X	.	.	.
=54	=54	=54	=54	=54	=54	=54
1GG	1d	-ne.	1g	-ne.	1g	-ne.
=55||	=55||	=55||	=55||	=55||	=55||	=55||
!	!	!	!	!	!LO:TX:a:t=Quarta, ed ultima Stanza.	!
1BB-y	2r	.	4r	.	4r	.
.	.	.	4f	Gli	4b-y	Gli
.	4r	.	4.b-y	fé	4.dd	fé
.	4f	Gli	.	.	.	.
.	.	.	8cc	d'un	8ee	d'un
=56	=56	=56	=56	=56	=56	=56
2BB-y	4.b-y	fé	2dd	brac-	2ff	brac-
.	8cc	d'un	.	.	.	.
2BB-y	2dd	brac-	2b-y	-cio	2dd	-cio
=57	=57	=57	=57	=57	=57	=57
2F	2b-y	-cio	2r	.	4r	.
.	.	.	.	.	8cc	al
.	.	.	.	.	8cc	bel
4F	2r	.	4r	.	2ff	fian-
[4F	.	.	8a	al	.	.
.	.	.	8a	bel	.	.
=58	=58	=58	=58	=58	=58	=58
4F]	4r	.	4cc	fian-	2f	-co,
4F	8cc	al	4a	-co	.	.
.	8cc	bel	.	.	.	.
2G	2ee-X	fian-	2r	.	4r	.
.	.	.	.	.	8g	al
.	.	.	.	.	8g	bel
=59	=59	=59	=59	=59	=59	=59
2D	4.dd	-co	2d	co-	4b-y	fian-
.	.	.	.	.	8a	-co
.	8cc	co-	.	.	8g	co-
2E-X	2cc	-lon-	2e-X	-lon-	2g	-lon-
=60	=60	=60	=60	=60	=60	=60
2.D	1dd	-na:	1d	-na:	1a	-na:
4D	.	.	.	.	.	.
=61	=61	=61	=61	=61	=61	=61
4D	2r	.	2r	.	2r	.
4C	.	.	.	.	.	.
[2BB-y	2f	E'n	2b-y	E'n	[2dd	E'n
=62	=62	=62	=62	=62	=62	=62
4BB-]	2f	tan-	8ddL	tan-	4dd]	.
.	.	.	8eeJ	.	.	.
4AA	.	.	2ff	.	2cc	tan-
2GG	2g	-t'al	.	.	.	.
.	.	.	4ee	-t'al	4b-y	-t'al
=63	=63	=63	=63	=63	=63	=63
1FF	2a	sen	2ff	sen	8cc	sen
.	.	.	.	.	8cc	li
.	.	.	.	.	8a	ra-
.	.	.	.	.	8g	-len-
.	2r	.	8r	.	2f	-tò,
.	.	.	8cc	li	.	.
.	.	.	8a	ra-	.	.
.	.	.	8g	-len-	.	.
=64	=64	=64	=64	=64	=64	=64
2F	8r	.	2f	-tò,	2r	.
.	8ff	li	.	.	.	.
.	8dd	ra-	.	.	.	.
.	8cc	-len-	.	.	.	.
2G	2b-y	-tò	4r	.	8r	.
.	.	.	.	.	8g	li
.	.	.	8r	.	8e-X	ra-
.	.	.	8ff	li	8d	-len-
=65	=65	=65	=65	=65	=65	=65
2C	4a	la	8ee-X	ra-	4.c	-tò
.	.	.	8dd	-len-	.	.
.	2g	gon-	8cc	-tò	.	.
.	.	.	8b-y	la	8c	la
2D	.	.	2a	gon-	2d	gon-
.	4f#i	.	.	.	.	.
=66	=66	=66	=66	=66	=66	=66
4GG	2g	-na,	2g	-na,	2g	-na,
2G	.	.	.	.	.	.
.	2r	.	2r	.	2r	.
4F#X	.	.	.	.	.	.
=67	=67	=67	=67	=67	=67	=67
4G	2r	.	2r	.	2r	.
4A	.	.	.	.	.	.
[2B-y	2b-y	E'n	2ff	E'n	[2dd	E'n
=68	=68	=68	=68	=68	=68	=68
4B-]	2f	tan-	2.ff	tan-	4dd]	.
4A	.	.	.	.	2cc	tan-
2G	2g	-t'al	.	.	.	.
.	.	.	4ee	-t'al	4b-y	-t'al
=69	=69	=69	=69	=69	=69	=69
1F	2a	sen	1ff	sen	4cc	sen
.	.	.	.	.	4dd	li
.	4r	.	.	.	4cc	ra-
.	4dd	li	.	.	4b-y	-len-
=70	=70	=70	=70	=70	=70	=70
2F	2.cc	ra-	4r	.	4a	-tò,
.	.	.	4a	li	4ff	li
2G	.	.	4g	ra-	4ee-X	ra-
.	4b-y	-len-	4f	-len-	4dd	-len-
=71	=71	=71	=71	=71	=71	=71
2C	4.a	-tò	8e	-tò	4cc	-tò
.	.	.	8f	la	.	.
.	.	.	2g	gon-	4c	la
.	8a	la	.	.	.	.
2D	2a	gon-	.	.	2d	gon-
.	.	.	4f#X	.	.	.
=72	=72	=72	=72	=72	=72	=72
1GGl	1gl	-na.	1gl	-na.	1gl	-na.
==	==	==	==	==	==	==
*-	*-	*-	*-	*-	*-	*-
!!!system-decoration: [*]
!!!RDF**kern: i = editorial accidental
!!!RDF**kern: l = terminal long
!!!ENC: Emiliano Ricciardi
!!!END:
!!!EED: Ricciardi, Emiliano
!!!EEV: 2020/07/23
!!!YEC: Copyright 2018 Emiliano Ricciardi, All Rights Reserved
!!!ONB: Translated from MusicXML on 2020/07/23
!!@@BEGIN:	VERSEDATA
!!@CATALOGNUM:	Tsg20128
!!@LAST_MODIFIED: 2020/07/12
!!@TITLE:		Si volse Armida, e 'l rimirò improvviso
!!@CANTO:		XX
!!@OTTAVA:	128
!!@MANUSRC:	G-Al, G-Au, G-Br<sub>2</sub>, G-Es<sub>1</sub>, G-Es<sub>2</sub>, G-Es<sub>3</sub>, G-F, G-Fr, G-Fr<sub>1</sub>, G-Fr<sub>2</sub>, G-Mc<sub>1</sub>, G-Mr, G-Mt, G-N, G-Ol
!!@PRINTSRC:	G-1580CM, G-1581B, G-1581CV, G-1581R, G-1581MR, G-1581P, G-1581V, G-1581V<sub>bis</sub>, G-1582C, G-1582M, G-1582MC, G-1582P, G-1582SC, G-1582SC<sub>bis</sub>, G-1583S, G-1584O, G-1584S, G-1585C, G-1585S, G-1588S, G-1589S, G-1590B, G-1590S, G-1592S, G-1593S, G-1594C, G-1595C, G-1597C, G-1598C, G-1599C, G-1600C, G-1600S, G-1601C, G-1601R, G-1602C, G-1604C, G-1604Cl, G-1604F, G-1604P, G-1606B, G-1606B<sub>bis</sub>, G-1606L, G-1607ZR, G-1608DP, G-1609GC, G-1610M, G-1611S, G-1611V, G-1612P, G-1613M, G-1613P, G-1613V, G-1615P, G-1616M, G-1617P, G-1619B, G-1619V, G-1620M, G-1620S, G-1621R, G-1624I, G-1624MT, G-1625C, G-1625S, G-1625SS, G-1626C, G-1626Co, G-1627M, G-1628T, G-1628Tu, G-1630L, G-1630T, G-1632FT, G-1639CF, G-1642M, G-1643I, G-1644P, G-1644S
!!@@BEGIN:	VERSES
!!@ABOUTIT:
!!@ABOUTEN:
!!@EDITOR:	Angelo Solerti
!!@EDITION_TITLE: Gerusalemme liberata. Poema eroico di Torquato Tasso. Edizione critica sui manoscritti e le prime stampe.
!!@EDITION_LOC:	Florence
!!@EDITION_PUB:	G. Barbera
!!@EDITION_DATE:  1895
!!@EDITION_VOL:
!!@EDITION_PAGE:
!!@TRANSLATOR:	Emiliano Ricciardi
!!@VERSE:
!!	Si volse Armida, e ’l rimirò improvviso;
!!	Ché nol sentì quando da prima ei venne.
!!	Alzò le strida, e dall’amato viso
!!	Torse le luci disdegnosa, e svenne.
!!	Ella cadea, quasi fior mezzo inciso,
!!	Piegando il lento collo: ei la sostenne.
!!	Le fé d’un braccio al bel fianco colonna:
!!	E intanto al sen le rallentò la gonna.
!!@TVERSE:
!!	Armida turned and stared at him suddenly;
!!	For she did not hear him when he came before.
!!	A shriek rose in her, and from his beloved face
!!	She pulled her eyes, disdainful, and fainted.
!!	She fell, like a flower sliced in half,
!!	Bowing her weak neck: he held her up.
!!	He made for her a column of one arm against her beautiful side;
!!	And meanwhile at her breast he loosened her dress.
!!@@END:		VERSES
!!@OTHER_CRIT_ED:  Torquato Tasso, <i>Gerusalemme liberata</i>, ed. Lanfranco Caretti, 2 vols. (Bari: Laterza, 1967).
!!@ATTRIBUTION_ABOUT:
!!@DATING:	mid-1560s through 1570s
!!@DEDICATEE:	Duke Alfonso II d'Este
!!@COMMENTARY:
!!@@END:		VERSEDATA
!!@@BEGIN: SETTING
!!@CATALOGNUM:	Tsg20128a
!!@CANTO:		XX
!!@OTTAVA:	128
!!@TITLE:	Si volse Armida, e 'l rimirò improvviso
!!@SETTINGTITLE: Si volse Armid'e 'l rimirò improviso
!!@COMPOSER:	Cifra, Antonio
!!@PARTS:		4 (verses 1-2; 3-4; 5-6; 7-8)
!!@PRINCEPSTITLE:	Li Diversi Scherzi a una, a due et tre voci. Libro primo
!!@PRINCEPSLOC:	Rome
!!@NORMLOC:	Rome
!!@NORMPUB:	Giovanni Battista Robletti
!!@NORMPUBSHORT:	Robletti
!!@PRINCEPSPUB:	Giovanni Battista Robletti
!!@PRINCEPSYEAR:	1613
!!@PRINCEPSRISM:	C 2214
!!@OVOICES:	3+bc
!!@EXTANTVOICES:	3+bc
!!@OMENSURATION:	C
!!@OCLEFS:	C1,C1,C1,F4
!!@OTIME:		
!!@OKEYSIG:	b-
!!@FINAL:		(G)(G)(G)G
!!@TIMPEDITOR:	Ricciardi, Emiliano
!!@REPRINTS:	
!!@@END: SETTING
